X:131
T: Die Schlangenkoechin
N: Q0079V
O: Mitteleuropa, Deutschland / Frankreich, Elsass
N: Zweite und vierte Zeile = Refrain.
R: Ballade, Mord; Reigen - Tanz, antiphonal
M: 3/4
L: 1/8
K: G
D2 | G6 | A2G2AA | B2B2d2 | G2G2
G2 | c2c2c2 | B2B2B2 | A6- | A2z2
A2 | c2c2cc | e2c3c | B2B2B2 | d2B2
G2 | A6 | c2A2F2 | G6- | G2z2

